src/images_karasa_jaga_svg/starmath/res/bi21311.svg

<svg height="24" viewBox="0 0 24 24" width="24" xmlns="http://www.w3.org/2000/svg"><g transform="matrix(1 0 0 -1 0 23.739368)"><path d="m5.8711166 7.5742916q.06399 0 .159976.047993.095986.06399.2399639.1919711.159976.1279807.2559614.2239663.095986.1119831.3039543.3199518.2239663.2239663.3199519.3199519l.1919711-.1599759q-.8798676-1.0878364-1.3118026-1.4237858-.4319351-.3359495-.9118628-.3359495-.6399037 0-.6399037.6559014 0 .3999398.3679447 1.8397231-1.0558412-1.4877761-1.7117425-1.9996991-.6559013-.5119229-1.5037737-.5119229-.76788459 0-1.19981959.4639301-.43193501.4799278-.43193501 1.3118027 0 1.2318146.68789651 2.5116222.70389409 1.279807 1.77573289 2.111682 1.0878363.831875 2.1116823.831875 1.0718387 0 1.2798074-.927861l.1759735.767885.047993.04799.9758532.111983.1119831-.04799q-.015998-.06399-.095986-.335949-1.4237858-5.2152156-1.4237858-5.8071265 0-.2079687.2239665-.2079689zm-.3039543 5.0712374q0 .447932-.2719589.703894-.2559615.271959-.7038942.271959-.8798676 0-1.6797473-1.023846-.7838819-1.023846-1.1838219-2.143678-.3839422-1.1038336-.3839422-1.7277397 0-.5439182.2559616-.8798676.2559614-.3199519.6718989-.3199519.7518869 0 1.5357689.86387.7838821.8798676 1.2638099 2.0796872.4959252 1.199819.4959252 2.175673z"/><path d="m16 9.7952091v-1.0558411h-8.0627863v1.0558411zm.127981 3.5034729q-.607908-2.111682-2.511622-2.111682-.607908 0-1.279807.431935-.671899.447933-1.311803.879868-.639904.447932-1.1518269.447932-1.3437975 0-1.8237253-1.743737l-.3199518.159976q.3839422 2.399639 2.463629 2.399639.655901 0 1.3278-.447933.671899-.431935 1.279808-.86387.607908-.431935 1.119831-.431935 1.26381 0 1.887716 1.423786z"/><path d="m18.192872 17.204843v.271959q1.19982.143978 2.447632.367944l.07999-.07999-1.66375-6.207066q.847873 1.3278 1.551767 1.871719.703894.543918 1.535769.543918.799879 0 1.3278-.543918.52792-.543919.52792-1.375793 0-1.231815-.767884-2.4796273-.751887-1.2318147-1.935709-2.0316943-1.183822-.7998796-2.367644-.7998796-.735889 0-1.439783.2879566-.687896.3039543-.687896.6239061l2.175672 8.0147945q.255962.895865.255962 1.103834 0 .271959-.175974.335949-.159976.07999-.86387.09599zm.719892-10.0944816q.815877 0 1.551766.5759133.751887.5759134 1.19982 1.375793.447932.7998797.703894 1.5517663.271959.751887.271959 1.19982 0 .639903-.303954 1.007848-.303955.367945-.815878.367945-.719891 0-1.375793-.687897-.655901-.671899-1.071838-1.615757-.415938-.9438577-.655902-1.8397229-.239963-.8798676-.239963-1.3917906 0-.5439181.735889-.5439181z"/></g></svg>

<?xml version="1.0" encoding="UTF-8" standalone="no"?>
<!-- Created with Inkscape (http://www.inkscape.org/) -->

<svg
   xmlns:dc="http://purl.org/dc/elements/1.1/"
   xmlns:cc="http://creativecommons.org/ns#"
   xmlns:rdf="http://www.w3.org/1999/02/22-rdf-syntax-ns#"
   xmlns:svg="http://www.w3.org/2000/svg"
   xmlns="http://www.w3.org/2000/svg"
   xmlns:sodipodi="http://sodipodi.sourceforge.net/DTD/sodipodi-0.dtd"
   xmlns:inkscape="http://www.inkscape.org/namespaces/inkscape"
   version="1.1"
   id="svg2"
   width="24"
   height="24"
   viewBox="0 0 24 24"
   sodipodi:docname="bi21311.svg"
   inkscape:version="0.92.3 (2405546, 2018-03-11)"
   inkscape:export-filename="/home/rizmut/Dokumen/Rizmut/Github/libreoffice-style-karasa-jaga/build/next/starmath/res/bi21311.png"
   inkscape:export-xdpi="96"
   inkscape:export-ydpi="96">
  <metadata
     id="metadata8">
    <rdf:RDF>
      <cc:Work
         rdf:about="">
        <dc:format>image/svg+xml</dc:format>
        <dc:type
           rdf:resource="http://purl.org/dc/dcmitype/StillImage" />
        <dc:title />
      </cc:Work>
    </rdf:RDF>
  </metadata>
  <defs
     id="defs6" />
  <sodipodi:namedview
     pagecolor="#ffffff"
     bordercolor="#666666"
     borderopacity="1"
     objecttolerance="10"
     gridtolerance="10"
     guidetolerance="10"
     inkscape:pageopacity="0"
     inkscape:pageshadow="2"
     inkscape:window-width="1366"
     inkscape:window-height="714"
     id="namedview4"
     showgrid="true"
     inkscape:zoom="26.074563"
     inkscape:cx="8.4157474"
     inkscape:cy="9.7132127"
     inkscape:window-x="0"
     inkscape:window-y="28"
     inkscape:window-maximized="1"
     inkscape:current-layer="g855"
     inkscape:snap-global="true">
    <inkscape:grid
       type="xygrid"
       id="grid823" />
  </sodipodi:namedview>
  <g
     id="g855"
     transform="matrix(1,0,0,-1,0,23.739368)">
    <path
       inkscape:connector-curvature="0"
       id="path11"
       style="font-style:italic;font-variant:normal;font-weight:normal;font-stretch:normal;font-size:medium;line-height:1.25;font-family:FreeSerif;-inkscape-font-specification:'FreeSerif Italic';letter-spacing:-0.5px;word-spacing:0px;fill:#000000;fill-opacity:1;stroke:none;stroke-width:0.39993981"
       d="m 5.8711166,7.5742916 q 0.06399,0 0.159976,0.047993 0.095986,0.06399 0.2399639,0.1919711 0.159976,0.1279807 0.2559614,0.2239663 0.095986,0.1119831 0.3039543,0.3199518 0.2239663,0.2239663 0.3199519,0.3199519 L 7.3428952,8.5181498 Q 6.4630276,7.4303134 6.0310926,7.094364 5.5991575,6.7584145 5.1192298,6.7584145 q -0.6399037,0 -0.6399037,0.6559014 0,0.3999398 0.3679447,1.8397231 Q 3.7914296,7.7662629 3.1355283,7.2543399 2.479627,6.742417 1.6317546,6.742417 q -0.76788459,0 -1.19981959,0.4639301 Q 0,7.6862749 0,8.5181498 q 0,1.2318146 0.68789651,2.5116222 0.70389409,1.279807 1.77573289,2.111682 1.0878363,0.831875 2.1116823,0.831875 1.0718387,0 1.2798074,-0.927861 l 0.1759735,0.767885 0.047993,0.04799 0.9758532,0.111983 0.1119831,-0.04799 Q 7.1509239,13.861346 7.0709359,13.589387 5.6471501,8.3741714 5.6471501,7.7822605 q 0,-0.2079687 0.2239665,-0.2079689 z M 5.5671623,12.645529 q 0,0.447932 -0.2719589,0.703894 -0.2559615,0.271959 -0.7038942,0.271959 -0.8798676,0 -1.6797473,-1.023846 Q 2.12768,11.57369 1.72774,10.453858 1.3437978,9.3500244 1.3437978,8.7261183 q 0,-0.5439182 0.2559616,-0.8798676 0.2559614,-0.3199519 0.6718989,-0.3199519 0.7518869,0 1.5357689,0.86387 0.7838821,0.8798676 1.2638099,2.0796872 0.4959252,1.199819 0.4959252,2.175673 z" />
    <path
       inkscape:connector-curvature="0"
       id="path13"
       style="font-style:normal;font-variant:normal;font-weight:normal;font-stretch:normal;font-size:medium;line-height:1.25;font-family:FreeSerif;-inkscape-font-specification:FreeSerif;letter-spacing:0px;word-spacing:0px;fill:#000000;fill-opacity:1;stroke:none;stroke-width:0.39993981"
       d="M 16,9.7952091 V 8.739368 H 7.9372137 v 1.0558411 z m 0.127981,3.5034729 Q 15.520073,11.187 13.616359,11.187 q -0.607908,0 -1.279807,0.431935 -0.671899,0.447933 -1.311803,0.879868 -0.639904,0.447932 -1.1518269,0.447932 -1.3437975,0 -1.8237253,-1.743737 L 7.729245,11.362974 q 0.3839422,2.399639 2.463629,2.399639 0.655901,0 1.3278,-0.447933 0.671899,-0.431935 1.279808,-0.86387 0.607908,-0.431935 1.119831,-0.431935 1.26381,0 1.887716,1.423786 z" />
    <path
       inkscape:connector-curvature="0"
       id="path15"
       style="font-style:italic;font-variant:normal;font-weight:normal;font-stretch:normal;font-size:medium;line-height:1.25;font-family:FreeSerif;-inkscape-font-specification:'FreeSerif Italic';letter-spacing:-0.5px;word-spacing:0px;fill:#000000;fill-opacity:1;stroke:none;stroke-width:0.39993981"
       d="m 18.192872,17.204843 v 0.271959 q 1.19982,0.143978 2.447632,0.367944 l 0.07999,-0.07999 -1.66375,-6.207066 q 0.847873,1.3278 1.551767,1.871719 0.703894,0.543918 1.535769,0.543918 0.799879,0 1.3278,-0.543918 Q 24,12.88549 24,12.053616 24,10.821801 23.232116,9.5739887 22.480229,8.342174 21.296407,7.5422944 20.112585,6.7424148 18.928763,6.7424148 q -0.735889,0 -1.439783,0.2879566 -0.687896,0.3039543 -0.687896,0.6239061 l 2.175672,8.0147945 q 0.255962,0.895865 0.255962,1.103834 0,0.271959 -0.175974,0.335949 -0.159976,0.07999 -0.86387,0.09599 z M 18.912764,7.1103614 q 0.815877,0 1.551766,0.5759133 0.751887,0.5759134 1.19982,1.375793 0.447932,0.7998797 0.703894,1.5517663 0.271959,0.751887 0.271959,1.19982 0,0.639903 -0.303954,1.007848 -0.303955,0.367945 -0.815878,0.367945 -0.719891,0 -1.375793,-0.687897 Q 19.488677,11.829651 19.07274,10.885793 18.656802,9.9419353 18.416838,9.0460701 18.176875,8.1662025 18.176875,7.6542795 q 0,-0.5439181 0.735889,-0.5439181 z" />
  </g>
</svg>
